icons/goodpods.svg

<svg width="32" height="32" viewBox="0 0 32 32" fill="none" xmlns="http://www.w3.org/2000/svg">
<path d="M3.36627 28.6337C0.910867 26.1783 0 22.1783 0 16C0 9.82167 0.910867 5.82167 3.36627 3.36627C5.82167 0.910867 9.82167 0 16 0C22.1783 0 26.1783 0.910867 28.6337 3.36627C31.0891 5.82167 32 9.82167 32 16C32 22.1783 31.0891 26.1783 28.6337 28.6337C26.1783 31.0891 22.1783 32 16 32C9.82167 32 5.82167 31.0891 3.36627 28.6337Z" fill="white"/>
<path opacity="0.757812" d="M16 28.5C22.9036 28.5 28.5 22.9036 28.5 16C28.5 9.09644 22.9036 3.5 16 3.5C9.09644 3.5 3.5 9.09644 3.5 16C3.5 22.9036 9.09644 28.5 16 28.5Z" fill="#FCDB00"/>
<path fill-rule="evenodd" clip-rule="evenodd" d="M13.8224 10.4152L11.8522 12.817L11.444 15.4397L10.5444 15.9174L10.4164 18.3474L10.7587 20.0509L11.8522 20.7819L12.9271 20.5546L13.8224 19.6319L13.6183 17.7496L13.4276 15.8059L12.6136 15.1777L12.7386 13.5465L14.3598 11.56L16.2658 11.4486L17.8353 11.7561L18.8622 12.5457L19.461 13.9127L19.5756 15.4397L19.1261 16.2806L19.1379 17.8271L19.3339 19.6884L19.5186 20.4142H21.3447L21.9199 19.7159L22.1439 18.1071L21.6301 15.659L20.6269 15.0518L20.1464 12.5457L18.2064 10.2755L16.0609 9.6329L13.8224 10.4152Z" fill="white"/>
<path fill-rule="evenodd" clip-rule="evenodd" d="M25.062 21.6598C25.0332 21.6598 25.0038 21.6569 24.974 21.6512C24.8652 21.6296 24.7589 21.5948 24.6657 21.5503C24.5028 21.4728 24.3472 21.3857 24.2165 21.3107C23.9894 21.1811 23.7912 21.0853 23.5631 21.04C23.4738 21.0223 23.3483 20.9862 23.2898 20.8776C23.2312 20.769 23.2696 20.6467 23.3097 20.5523C23.3204 20.5248 23.3357 20.494 23.3541 20.4644C23.4227 20.3475 23.579 20.2881 23.7162 20.3287L23.74 20.3355C23.8088 20.3551 23.8866 20.3774 23.9508 20.4277C24.0866 20.5346 24.2451 20.6073 24.4129 20.6842C24.4846 20.7172 24.5562 20.75 24.6261 20.7856C24.7903 20.8682 24.928 20.8927 25.0733 20.865C25.1892 20.8427 25.2664 20.8758 25.3105 20.9076C25.3548 20.9396 25.4105 21.0022 25.424 21.1187C25.4278 21.1521 25.4301 21.1856 25.4319 21.2147L25.4339 21.2427L25.4307 21.2832C25.4291 21.3046 25.4276 21.3232 25.4255 21.3423C25.4123 21.4473 25.3611 21.5357 25.2813 21.5927C25.2194 21.637 25.1436 21.6598 25.062 21.6598Z" fill="#333333" stroke="#333333" stroke-width="0.21118"/>
<path fill-rule="evenodd" clip-rule="evenodd" d="M24.1759 17.8728C24.1608 17.8728 24.1466 17.8721 24.1335 17.8715C24.1232 17.871 24.1129 17.8705 24.1028 17.8705C23.9496 17.8694 23.8169 17.7952 23.7794 17.6898C23.7556 17.6222 23.7624 17.5472 23.7982 17.4783C23.8407 17.3965 23.9177 17.334 24.0098 17.3067C24.1762 17.2582 24.3567 17.2167 24.5533 17.2383C24.6495 17.2496 24.7456 17.2578 24.8418 17.2661C25.0001 17.2806 25.164 17.2769 25.3581 17.2539C25.5222 17.2346 25.5983 17.2016 25.649 17.128C25.7073 17.0452 25.8513 17.0229 25.9298 17.0424C26.0161 17.0638 26.1017 17.1443 26.1247 17.226C26.1608 17.352 26.1554 17.542 25.9241 17.7293C25.8513 17.7864 25.7471 17.7969 25.6913 17.7981C25.5437 17.8018 25.3957 17.8014 25.2479 17.8009L25.1071 17.8006C25.0003 17.8099 24.8938 17.8107 24.7907 17.8115C24.6057 17.813 24.4309 17.8144 24.2633 17.862C24.2327 17.8706 24.2031 17.8728 24.1759 17.8728Z" fill="#333333" stroke="#333333" stroke-width="0.21118"/>
<path fill-rule="evenodd" clip-rule="evenodd" d="M23.6536 15.4881C23.5779 15.4881 23.5012 15.4602 23.4443 15.4111C23.3946 15.3682 23.3657 15.3129 23.363 15.2555C23.3583 15.1699 23.3593 15.0786 23.3988 14.9975C23.4451 14.9004 23.5107 14.8063 23.5882 14.7261C23.8779 14.4261 24.1217 14.0794 24.3577 13.7441L24.4485 13.6153C24.5186 13.5171 24.6055 13.3953 24.7812 13.3585C24.8584 13.3416 25.0025 13.3384 25.0769 13.4008C25.1132 13.4313 25.1326 13.4746 25.13 13.5199C25.1262 13.5887 25.1162 13.6682 25.0724 13.7349C24.935 13.9438 24.7843 14.1641 24.5988 14.4283C24.4158 14.6897 24.2271 14.9541 24.0377 15.2139C23.9874 15.2835 23.9243 15.3525 23.8508 15.4184L23.8505 15.4186C23.8051 15.459 23.7503 15.4715 23.7175 15.4789L23.6785 15.4871C23.6702 15.4878 23.662 15.4881 23.6536 15.4881Z" fill="#333333" stroke="#333333" stroke-width="0.21118"/>
<path fill-rule="evenodd" clip-rule="evenodd" d="M7.6596 21.2829C7.60834 21.2829 7.55979 21.2758 7.51568 21.2615C7.41979 21.2274 7.34852 21.1578 7.31675 21.0695C7.29115 20.9986 7.29599 20.926 7.32996 20.8705C7.35867 20.8234 7.38941 20.773 7.43819 20.7356C7.50894 20.6819 7.58857 20.6215 7.68088 20.5815C8.05925 20.4173 8.42822 20.2119 8.78497 20.0132C8.91851 19.9389 9.052 19.8646 9.18629 19.792L9.18709 19.7916C9.26978 19.7478 9.36561 19.741 9.44841 19.7401C9.51945 19.7394 9.58616 19.7776 9.63068 19.8454C9.66931 19.9043 9.69676 19.9971 9.65738 20.0806C9.58368 20.2373 9.47096 20.3613 9.32225 20.4491C9.24689 20.4938 9.17204 20.5398 9.0972 20.5858C8.97877 20.6587 8.85624 20.734 8.73192 20.8036C8.60149 20.8763 8.46789 20.9458 8.33862 21.0129C8.22935 21.0696 8.12002 21.1264 8.01197 21.1855C7.89515 21.2494 7.77118 21.2829 7.6596 21.2829Z" fill="#333333" stroke="#333333" stroke-width="0.21118"/>
<path fill-rule="evenodd" clip-rule="evenodd" d="M7.7185 17.7185C7.67612 17.7185 7.63397 17.7179 7.59228 17.7172L7.50533 17.7161C7.44046 17.7154 7.3685 17.7025 7.30242 17.6799C7.17966 17.6373 7.10361 17.5465 7.09865 17.4366C7.09288 17.3133 7.17378 17.2041 7.29539 17.1712C7.43348 17.1352 7.57729 17.1088 7.72381 17.0924C7.80436 17.0833 7.88549 17.0794 7.96396 17.0755C8.06839 17.0704 8.1671 17.0656 8.26178 17.0498C8.58468 16.9955 8.85545 17.0819 9.09999 17.1831C9.21785 17.2324 9.28151 17.3327 9.27079 17.4516C9.25833 17.5815 9.13188 17.6884 8.98254 17.6961C8.9612 17.6975 8.93993 17.6974 8.90625 17.6972L8.82928 17.6944C8.5566 17.6393 8.23577 17.6703 7.9868 17.7036C7.89748 17.7156 7.80741 17.7185 7.7185 17.7185Z" fill="#333333" stroke="#333333" stroke-width="0.21118"/>
<path fill-rule="evenodd" clip-rule="evenodd" d="M9.17066 15.3104C9.16777 15.3104 9.16478 15.3103 9.16183 15.3102C9.07408 15.3067 8.98303 15.3031 8.89994 15.2626H8.89988C8.76617 15.1974 8.62599 15.124 8.50646 15.028C8.08462 14.6911 7.75197 14.3345 7.48985 13.9381C7.30862 13.6646 7.21094 13.3767 7.19952 13.0823C7.1967 12.9825 7.29172 12.9182 7.34858 12.8886C7.42878 12.8478 7.54168 12.8876 7.58614 12.9485C7.63129 13.011 7.67701 13.0792 7.70769 13.1574C7.92374 13.6943 8.3592 14.0847 8.78658 14.4385C8.82925 14.4739 8.88806 14.5009 8.95034 14.5295C8.97599 14.5413 9.00154 14.5532 9.02651 14.5656C9.05816 14.5815 9.09057 14.5958 9.12303 14.6102C9.18421 14.6373 9.24758 14.6653 9.30847 14.7033C9.41866 14.7703 9.48375 14.8918 9.47297 15.012C9.45158 15.1804 9.31729 15.3104 9.17066 15.3104Z" fill="#333333" stroke="#333333" stroke-width="0.21118"/>
<path fill-rule="evenodd" clip-rule="evenodd" d="M21.613 18.5202C21.5864 18.9196 21.4648 18.9153 21.4604 19.2907C21.456 19.666 21.4563 19.8598 21.2943 19.9229C21.1322 19.986 20.6452 20.1024 20.1481 20.103C19.6509 20.1036 19.6497 20.1298 19.5375 19.9951C19.4253 19.8605 19.3852 19.3483 19.3672 18.7915C19.3491 18.2347 19.3309 17.7691 19.2511 17.3911C19.1713 17.0131 19.2771 16.1917 19.397 15.9322C19.5169 15.6727 19.4958 15.7042 19.5875 15.6641C19.5875 15.6641 19.9469 15.6834 20.1481 15.6641C20.3492 15.6449 20.8111 15.5642 20.9911 15.6731C21.1711 15.782 21.2571 15.9942 21.3955 16.6056C21.534 17.217 21.6395 18.1208 21.613 18.5202ZM19.1157 12.9918C19.0419 12.6229 19.0796 12.8401 18.8343 12.3638C18.5889 11.8876 18.4535 11.9072 18.0187 11.6231C17.5839 11.339 16.662 11.0767 16.5213 11.0281C16.3805 10.9795 16.4253 11.0092 16.2715 11.001C16.1177 10.9929 15.8774 10.8876 15.1019 11.001C14.3263 11.1144 13.7049 11.5682 13.2589 12.0925C12.8129 12.6167 12.5392 13.2075 12.3074 13.6323C12.0756 14.0571 12.1145 14.4195 12.0876 14.6636C12.0607 14.9076 12.0196 14.874 11.9337 14.9266C11.8478 14.979 11.6557 14.9266 11.6557 14.9266C11.5643 14.909 11.6823 14.6808 11.7009 14.4919C11.7194 14.303 11.6637 14.0737 11.6557 13.9156C11.6476 13.7576 11.6924 13.7273 11.742 13.6447C11.7915 13.562 11.9723 13.2224 12.0642 13.0379C12.156 12.8535 12.3748 12.3966 12.4771 12.215C12.5794 12.0334 12.6687 11.7624 13.2311 11.2758C13.7934 10.7893 14.101 10.6747 14.39 10.5563C14.6791 10.438 15.2735 10.1164 15.4373 10.0617C15.6012 10.0069 15.6657 9.99075 15.9164 9.96866C16.167 9.94663 16.8355 10.0512 17.0143 10.0695C17.1932 10.0879 17.1774 10.0967 17.3742 10.2554C17.5709 10.4141 17.8526 10.7068 18.1069 10.8894C18.3612 11.0721 18.6419 11.2632 18.7412 11.3524C18.8405 11.4417 19.0441 11.5933 19.0664 11.7484C19.0888 11.9034 19.2066 11.9815 19.2888 12.0878C19.371 12.1941 19.3854 12.3125 19.585 13.0673C19.7847 13.8222 19.8343 13.8253 19.8816 14.1197C19.9288 14.4141 19.8837 14.6171 19.7954 14.7278C19.7073 14.8384 19.6791 14.7837 19.6159 14.7249C19.5528 14.6661 19.5153 14.316 19.3848 13.9263C19.2544 13.5366 19.1896 13.3608 19.1157 12.9918ZM13.1605 16.8412C13.2563 17.4511 13.4236 18.7626 13.3174 19.3125C13.2112 19.8624 13.0307 20.1342 12.8318 20.2647C12.6328 20.3953 12.196 20.4699 11.695 20.318C11.1939 20.1661 11.0016 20.048 10.8227 19.5237C10.6438 18.9993 10.7434 19.086 10.6773 18.7362C10.6111 18.3865 10.5284 18.2709 10.5435 17.9995C10.5588 17.7283 10.5016 16.8487 10.563 16.5553C10.6243 16.2619 10.6058 15.9778 10.8787 15.9294C11.1516 15.8811 11.3146 15.9962 11.4941 15.9278C11.6736 15.8595 11.6554 15.8308 11.8379 15.8004C12.0114 15.7715 12.3492 15.6727 12.5693 15.7727C12.7894 15.8728 13.0647 16.2314 13.1605 16.8412ZM22.1973 17.4039C22.0773 17.0617 22.1297 16.7529 22.0365 16.1989C21.9433 15.6449 21.7014 15.4557 21.7014 15.4557C21.7014 15.4557 21.587 15.1145 21.1338 14.9873C20.6808 14.8602 20.8132 14.9608 20.7663 14.7028C20.7196 14.4449 20.7108 14.4016 20.6519 14.1398C20.593 13.8781 20.577 13.7564 20.5639 13.4822C20.5507 13.2081 20.5503 12.8992 20.426 12.6547C20.3018 12.4102 20.0694 11.9507 19.8232 11.542C19.577 11.1334 19.4202 10.9265 19.0348 10.6082C18.6495 10.2899 18.4126 9.95628 18.0223 9.74963C17.6318 9.54302 17.6589 9.48375 17.2689 9.38008C16.879 9.27641 16.8252 9.33875 16.316 9.29589C15.8068 9.25302 15.757 9.21816 15.3693 9.29589C14.9816 9.37361 14.7296 9.59997 14.2748 9.80861C13.8201 10.0173 13.6339 10.0109 13.3238 10.2756C13.0137 10.5404 13.0819 10.6217 12.8214 10.8371C12.5608 11.0526 12.4055 11.1745 12.0552 11.7653C11.7049 12.3561 11.4502 12.9558 11.3243 13.2344C11.1985 13.513 11.0841 13.5966 11.0685 13.9089C11.0529 14.2212 11.1177 14.1724 11.0432 14.531C10.9687 14.8896 10.89 15.1822 10.89 15.1822C10.89 15.1822 10.4324 15.1735 10.1678 15.6731C9.90311 16.1727 9.92531 16.3721 9.88956 16.6648C9.85381 16.9575 9.92571 17.7318 9.9798 18.2431C10.0339 18.7543 10.0685 19.482 10.1583 19.7404C10.248 19.9987 10.5728 20.7301 11.2784 20.9481C11.9839 21.1661 12.1431 21.1963 12.3515 21.1442C12.56 21.0921 12.9295 20.9866 13.1903 20.8992C13.451 20.812 13.7615 20.5336 13.906 19.8984C14.0505 19.2632 14.0596 18.9485 14.0019 18.0711C13.9443 17.1937 13.9499 16.7312 13.7039 16.0665C13.4581 15.4018 13.0976 15.3057 12.9341 15.1564C12.7706 15.007 12.7576 15.0521 12.7791 14.8487C12.8005 14.6454 12.7526 14.1836 13.2711 13.376C13.7896 12.5683 14.3261 12.0639 15.1017 11.8369C15.8774 11.6099 16.453 11.7927 16.7398 11.8965C17.0266 12.0005 17.1081 12.0378 17.3564 12.0844C17.6046 12.1309 17.7782 12.276 17.9336 12.4597C18.089 12.6435 18.4118 13.0998 18.5553 13.415C18.6987 13.7301 18.6169 13.8791 18.7781 14.2275C18.9393 14.5758 19.0975 14.6874 19.0638 14.9266C19.0302 15.1657 18.9952 15.0967 18.9357 15.2668C18.8762 15.4369 18.6472 15.758 18.614 16.1494C18.5808 16.5408 18.5507 16.8642 18.5578 17.2963C18.5647 17.7284 18.6604 17.8675 18.6544 18.3673C18.6485 18.8671 18.6065 19.6994 18.7536 20.103C18.9007 20.5066 19.0008 20.7721 19.1752 20.8416C19.3497 20.9111 19.3086 20.9189 19.4163 20.9106C19.4163 20.9106 19.5376 20.842 19.8553 20.849C20.1728 20.8559 21.0405 20.9126 21.506 20.6505C21.9715 20.3883 22.0559 20.2433 22.1579 19.3886C22.2601 18.534 22.3172 17.7461 22.1973 17.4039Z" fill="#333333" stroke="#333333" stroke-width="0.21118"/>
</svg>

<svg xmlns="http://www.w3.org/2000/svg" width="32" height="32" fill="none" viewBox="0 0 32 32">
  <path fill="#fff" d="M3.366 28.634C.911 26.178 0 22.178 0 16S.91 5.822 3.366 3.366C5.822.911 9.822 0 16 0s10.178.91 12.634 3.366C31.089 5.822 32 9.822 32 16s-.91 10.178-3.366 12.634C26.178 31.089 22.178 32 16 32s-10.178-.91-12.634-3.366Z"/>
  <path fill="#FCDB00" d="M16 28.5c6.904 0 12.5-5.596 12.5-12.5S22.904 3.5 16 3.5 3.5 9.096 3.5 16 9.096 28.5 16 28.5Z" opacity=".758"/>
  <path fill="#fff" fill-rule="evenodd" d="m13.822 10.415-1.97 2.402-.408 2.623-.9.477-.128 2.43.343 1.704 1.093.73 1.075-.226.895-.923-.204-1.882-.19-1.944-.814-.628.125-1.632 1.62-1.986 1.907-.111 1.57.307 1.026.79.599 1.367.115 1.527-.45.84.012 1.547.196 1.861.185.726h1.826l.575-.698.224-1.609-.514-2.448-1.003-.607-.48-2.506-1.94-2.27-2.146-.643-2.239.782Z" clip-rule="evenodd"/>
  <path fill="#333" fill-rule="evenodd" stroke="#333" stroke-width=".211" d="M25.062 21.66a.468.468 0 0 1-.088-.009 1.322 1.322 0 0 1-.308-.1 6.662 6.662 0 0 1-.45-.24c-.227-.13-.425-.226-.653-.271-.09-.018-.215-.054-.273-.162-.059-.109-.02-.231.02-.326a.546.546 0 0 1 .044-.088.323.323 0 0 1 .362-.135l.024.006c.069.02.147.042.21.093.137.107.295.18.463.256.072.033.143.066.213.102a.67.67 0 0 0 .447.079.297.297 0 0 1 .238.043c.044.032.1.094.113.21.004.034.006.068.008.097l.002.028-.003.04a1.46 1.46 0 0 1-.006.06.356.356 0 0 1-.144.25.374.374 0 0 1-.219.067Zm-.886-3.787c-.015 0-.03 0-.043-.002a.524.524 0 0 0-.03 0c-.153-.002-.286-.076-.324-.181a.265.265 0 0 1 .02-.212.35.35 0 0 1 .21-.171c.167-.049.348-.09.544-.069.096.012.193.02.289.028.158.015.322.01.516-.012.164-.02.24-.052.29-.126.06-.083.203-.105.282-.086a.29.29 0 0 1 .195.184c.036.126.03.316-.2.503a.408.408 0 0 1-.234.07c-.147.003-.295.002-.443.002h-.14c-.108.009-.214.01-.317.01-.185.002-.36.003-.528.051a.323.323 0 0 1-.087.01Zm-.522-2.385a.325.325 0 0 1-.21-.077.222.222 0 0 1-.081-.155.52.52 0 0 1 .036-.258c.046-.098.112-.192.19-.272.289-.3.533-.647.769-.982l.09-.129c.07-.098.157-.22.333-.257.078-.017.222-.02.296.043.036.03.056.074.053.119a.43.43 0 0 1-.057.215 49.483 49.483 0 0 1-1.035 1.479 1.3 1.3 0 0 1-.187.204.285.285 0 0 1-.133.06l-.04.01a.296.296 0 0 1-.024 0ZM7.66 21.283a.464.464 0 0 1-.144-.021.32.32 0 0 1-.2-.192.23.23 0 0 1 .014-.2.462.462 0 0 1 .108-.134 1.2 1.2 0 0 1 .243-.155c.378-.164.747-.37 1.104-.568.134-.074.267-.148.401-.22l.001-.001a.57.57 0 0 1 .261-.052c.071 0 .138.038.183.105.038.06.066.152.026.236a.83.83 0 0 1-.335.368c-.075.045-.15.09-.225.137-.118.073-.24.148-.365.218-.13.072-.264.142-.393.209-.11.057-.219.113-.327.172a.749.749 0 0 1-.352.098Zm.059-3.564-.127-.002h-.087a.667.667 0 0 1-.203-.037c-.122-.043-.198-.133-.203-.243a.262.262 0 0 1 .196-.266 3.044 3.044 0 0 1 .669-.095c.104-.006.203-.01.298-.026.323-.054.593.032.838.133.118.05.182.15.17.269-.012.13-.138.236-.287.244a1.14 1.14 0 0 1-.077.001l-.077-.002c-.272-.056-.593-.025-.842.009-.09.012-.18.015-.268.015ZM9.17 15.31h-.008a.64.64 0 0 1-.262-.047 2.081 2.081 0 0 1-.394-.235 4.73 4.73 0 0 1-1.016-1.09 1.655 1.655 0 0 1-.29-.856c-.003-.1.092-.164.149-.193.08-.041.193-.002.237.06.045.062.091.13.122.208.216.537.651.928 1.079 1.281a.695.695 0 0 0 .163.091l.077.037.096.044c.061.027.125.055.185.093.11.067.176.189.165.309-.021.168-.156.298-.302.298Zm12.443 3.21c-.026.4-.148.395-.153.77-.004.376-.004.57-.166.633-.162.063-.649.18-1.146.18-.497 0-.498.027-.61-.108-.113-.135-.153-.647-.17-1.204-.019-.556-.037-1.022-.117-1.4-.08-.378.026-1.2.146-1.459.12-.26.099-.228.19-.268 0 0 .36.02.561 0 .201-.02.663-.1.843.01.18.108.266.32.405.932.138.611.244 1.515.217 1.914Zm-2.497-5.528c-.074-.37-.036-.152-.282-.628-.245-.476-.38-.457-.815-.74-.435-.285-1.357-.547-1.498-.596-.14-.049-.096-.019-.25-.027-.153-.008-.394-.113-1.17 0-.775.113-1.396.567-1.842 1.091-.446.525-.72 1.115-.952 1.54-.231.425-.193.787-.22 1.032-.026.244-.067.21-.153.263-.086.052-.278 0-.278 0-.092-.018.026-.246.045-.435.018-.189-.037-.418-.045-.576-.008-.158.036-.189.086-.271.05-.083.23-.423.322-.607s.31-.641.413-.823c.102-.182.192-.453.754-.94.562-.486.87-.6 1.16-.719.288-.118.883-.44 1.046-.494.164-.055.229-.071.48-.093.25-.022.919.082 1.097.1.18.019.163.028.36.186.197.16.479.452.733.634.254.183.535.374.634.463.1.09.303.241.326.396.022.155.14.234.222.34.082.106.096.225.296.98.2.754.25.757.297 1.052.047.294.002.497-.087.608-.088.11-.116.056-.179-.003-.063-.059-.1-.409-.231-.799-.13-.39-.195-.565-.27-.934Zm-5.955 3.85c.095.61.263 1.92.156 2.47-.106.55-.286.822-.485.953-.2.13-.636.205-1.137.053s-.693-.27-.872-.794c-.18-.525-.08-.438-.146-.788-.066-.35-.149-.465-.133-.736.015-.272-.042-1.151.019-1.445.061-.293.043-.577.316-.626.273-.048.436.067.615-.001.18-.069.161-.097.344-.128.173-.029.511-.127.731-.027.22.1.496.458.591 1.068Zm9.036.562c-.12-.342-.067-.651-.16-1.205-.094-.554-.336-.743-.336-.743s-.114-.341-.567-.469c-.453-.127-.32-.026-.368-.284a10.019 10.019 0 0 0-.114-.563 3.127 3.127 0 0 1-.088-.658c-.013-.274-.014-.583-.138-.827-.124-.245-.356-.704-.603-1.113-.246-.409-.403-.615-.788-.934-.386-.318-.622-.652-1.013-.858-.39-.207-.363-.266-.753-.37-.39-.104-.444-.041-.953-.084-.51-.043-.559-.078-.947 0-.387.078-.64.304-1.094.513-.455.208-.641.202-.951.467-.31.264-.242.346-.503.561-.26.216-.415.338-.766.928-.35.591-.605 1.19-.73 1.47-.127.278-.24.362-.256.674-.016.312.049.263-.026.622-.074.359-.153.651-.153.651s-.458-.008-.722.491c-.265.5-.243.7-.278.992-.036.293.036 1.067.09 1.578.054.511.088 1.239.178 1.497.09.259.415.99 1.12 1.208.706.218.865.248 1.073.196.209-.052.579-.157.84-.245.26-.087.57-.365.715-1 .145-.636.154-.95.096-1.828-.058-.877-.052-1.34-.298-2.005-.246-.664-.606-.76-.77-.91-.163-.149-.176-.104-.155-.307.021-.204-.026-.665.492-1.473.519-.808 1.055-1.312 1.83-1.54a2.52 2.52 0 0 1 1.639.06c.287.104.368.142.616.188.249.047.422.192.578.376.155.183.478.64.621.955.144.315.062.464.223.813.161.348.32.46.286.699-.034.239-.069.17-.128.34-.06.17-.289.491-.322.882-.033.392-.063.715-.056 1.147.007.432.102.572.096 1.071-.006.5-.047 1.332.1 1.736.147.404.247.67.421.739.175.07.134.077.241.069 0 0 .122-.069.44-.062.317.007 1.184.064 1.65-.198.465-.263.55-.408.652-1.262.102-.855.16-1.643.04-1.985Z" clip-rule="evenodd"/>
</svg>
